X: 20743
T: He til't and She til't
%R: reel
B: James Oswald "The Caledonian Pocket Companion" v.2 p.74 #3
Z: 2019 John Chambers <jc:trillian.mit.edu>
M: C
L: 1/16
K: F
|:"_Lively"\
c4 A2F2 a4 f2d2 | c4 A2F2 E2G2 G4 |\
c4 A2F2 a4 f2d2 | c4 A2F2 D2F2 F4 ::\
c'4 a2f2 d'4 b2g2 | a4 g2f2 e2g2 g4 |
c'4 a2f2 d'4 b2g2 | a2f2a2f2 c2f2 f4 ::\
(ABc2) A2F2 f2a2 Tg4 | f2d2c2A2 f2A2 TG4 |\
(ABc2) A2F2 f2a2g2f2 |
d4 c(AGF) D2F2 F4 ::\
abc'2 a2f2 b2d'2 c'4 | b2a2g2f2 (efg2) c4 |\
abc'2 a2f2 b2d'2c'2b2 | Ta4 g2f2 c2f2 f4 :|


